X: 11565
T: SYLVIA FOR SHAME
C: Captain Packe.--From Playford's Collection.
Q: "Moderate."
%R: waltz
B: W. Hamilton "Universal Tune-Book" Vol. 1 Glasgow 1844 p.156 #5 (and p.157 #1)
S: http://imslp.org/wiki/Hamilton's_Universal_Tune-Book_(Various)
Z: 2016 John Chambers <jc:trillian.mit.edu>
M: 3/4
L: 1/4
K: F
% - - - - - - - - - - - - - - - - - - - - - - - - -
f |\
c2A | d2c | B(G>F) | E2c |\
A2d | ce2 | d2g | e2f |\
(c/d/c)A | d2c | B(G>F) | E2c |\
B2A | d2e | fd2 | c2g |
f2e | f2d | (g/f/e)>d | ^c3 |\
=ccc | d2c | BB2 | A2c |\
(def) | cA2 | (d/g/)e2(d/c/) | (fe)d |\
(c_e)d | B2A | GG>F | F2 |]
% - - - - - - - - - - - - - - - - - - - - - - - - -

% (Continued from previous page)

%%sep 1 1 500
%%sep 1 1 500

